resources/icons/custom/gaugings.svg

<?xml version="1.0" encoding="UTF-8" standalone="no"?>
<svg
   width="24"
   height="24"
   viewBox="0 0 24 24"
   fill="none"
   stroke="currentColor"
   stroke-width="1.5"
   stroke-linecap="round"
   stroke-linejoin="round"
   version="1.1"
   id="svg4"
   sodipodi:docname="gaugings.svg"
   inkscape:version="1.2.1 (9c6d41e410, 2022-07-14)"
   xml:space="preserve"
   xmlns:inkscape="http://www.inkscape.org/namespaces/inkscape"
   xmlns:sodipodi="http://sodipodi.sourceforge.net/DTD/sodipodi-0.dtd"
   xmlns="http://www.w3.org/2000/svg"
   xmlns:svg="http://www.w3.org/2000/svg"><defs
     id="defs8"><rect
       x="-4.4583682"
       y="-11.721194"
       width="35.559082"
       height="33.617534"
       id="rect13873" /><rect
       x="-4.4583683"
       y="-11.721194"
       width="35.559082"
       height="33.617535"
       id="rect13873-6" /></defs><sodipodi:namedview
     id="namedview6"
     pagecolor="#505050"
     bordercolor="#ffffff"
     borderopacity="1"
     inkscape:showpageshadow="0"
     inkscape:pageopacity="0"
     inkscape:pagecheckerboard="1"
     inkscape:deskcolor="#505050"
     showgrid="false"
     inkscape:zoom="27.812867"
     inkscape:cx="8.1257355"
     inkscape:cy="8.1257355"
     inkscape:window-width="2520"
     inkscape:window-height="1574"
     inkscape:window-x="-11"
     inkscape:window-y="-11"
     inkscape:window-maximized="1"
     inkscape:current-layer="svg4"
     showguides="false" /><path
     id="path12985"
     style="fill:#ff0000;fill-opacity:1;stroke:none;stroke-width:1.5;stroke-linecap:round;stroke-dasharray:none;stroke-opacity:1"
     d="M 19.46875 2.3007812 A 1.2763877 1.2763877 0 0 0 18.193359 3.578125 A 1.2763877 1.2763877 0 0 0 19.46875 4.8535156 A 1.2763877 1.2763877 0 0 0 20.746094 3.578125 A 1.2763877 1.2763877 0 0 0 19.46875 2.3007812 z M 18.193359 6.3457031 A 1.2763877 1.2763877 0 0 0 16.916016 7.6230469 A 1.2763877 1.2763877 0 0 0 18.193359 8.8984375 A 1.2763877 1.2763877 0 0 0 19.46875 7.6230469 A 1.2763877 1.2763877 0 0 0 18.193359 6.3457031 z M 14.130859 12.0625 A 1.2763877 1.2763877 0 0 0 12.853516 13.339844 A 1.2763877 1.2763877 0 0 0 14.130859 14.615234 A 1.2763877 1.2763877 0 0 0 15.40625 13.339844 A 1.2763877 1.2763877 0 0 0 14.130859 12.0625 z M 10.642578 15.550781 A 1.2763877 1.2763877 0 0 0 9.9160156 15.78125 A 1.2763877 1.2763877 0 0 0 9.2402344 15.585938 A 1.2763877 1.2763877 0 0 0 7.9648438 16.863281 A 1.2763877 1.2763877 0 0 0 9.2402344 18.138672 A 1.2763877 1.2763877 0 0 0 9.9667969 17.908203 A 1.2763877 1.2763877 0 0 0 10.642578 18.103516 A 1.2763877 1.2763877 0 0 0 11.917969 16.826172 A 1.2763877 1.2763877 0 0 0 10.642578 15.550781 z M 6.9023438 16.84375 A 1.2763877 1.2763877 0 0 0 5.6523438 17.886719 A 1.2763877 1.2763877 0 0 0 5.3574219 17.851562 A 1.2763877 1.2763877 0 0 0 4.0800781 19.126953 A 1.2763877 1.2763877 0 0 0 5.3574219 20.404297 A 1.2763877 1.2763877 0 0 0 6.609375 19.361328 A 1.2763877 1.2763877 0 0 0 6.9023438 19.398438 A 1.2763877 1.2763877 0 0 0 8.1796875 18.121094 A 1.2763877 1.2763877 0 0 0 6.9023438 16.84375 z " /><g
     aria-label="Q"
     transform="translate(-22.183977,12.296467)"
     id="text13871"
     style="font-weight:bold;font-size:6.66667px;font-family:monospace;-inkscape-font-specification:'monospace Bold';text-align:end;text-anchor:end;white-space:pre;shape-inside:url(#rect13873);display:inline;fill:#ff0000;stroke:none" /><g
     aria-label="h"
     transform="translate(-8.4927504,24.760016)"
     id="text13871-8"
     style="font-weight:bold;font-size:6.66667px;font-family:monospace;-inkscape-font-specification:'monospace Bold';text-align:end;white-space:pre;shape-inside:url(#rect13873-6);display:inline;fill:#ff0000;stroke:none" /><g
     id="g68004"
     transform="translate(0,0.04711335)"><g
       aria-label="Q"
       transform="matrix(1.4255687,0,0,1.4255687,-33.551921,16.106521)"
       id="text13871-7"
       style="font-weight:bold;font-size:6.66667px;font-family:monospace;-inkscape-font-specification:'monospace Bold';text-align:end;text-anchor:end;white-space:pre;shape-inside:url(#rect13873);display:inline;fill:#ff0000;stroke:none;stroke-width:1.05221"><path
         d="m 29.223306,-5.747393 q -0.04557,0.00977 -0.07813,0.013021 -0.0293,0.00651 -0.05859,0.00651 -0.836589,0 -1.269532,-0.6380212 -0.429688,-0.6380211 -0.429688,-1.8815113 0,-1.2467454 0.429688,-1.8847665 0.432943,-0.638021 1.276042,-0.638021 0.846355,0 1.276042,0.638021 0.432943,0.6380211 0.432943,1.8847665 0,0.8561202 -0.205078,1.4355476 -0.205078,0.5761721 -0.595703,0.8235681 l 0.605469,0.5924482 -0.657553,0.4882815 z m -0.130208,-4.1601582 q -0.367839,0 -0.53711,0.3938804 -0.169271,0.3906252 -0.169271,1.2662766 0,0.8723963 0.169271,1.2662767 0.169271,0.3906252 0.53711,0.3906252 0.371094,0 0.540365,-0.3906252 0.169271,-0.3938804 0.169271,-1.2662767 0,-0.8756514 -0.169271,-1.2662766 -0.169271,-0.3938804 -0.540365,-0.3938804 z"
         style="fill:#000000;stroke:none;stroke-width:1.05221"
         id="path14160" /></g><g
       aria-label="h"
       transform="translate(-15.961165,16.621146)"
       id="text13871-8-1"
       style="font-weight:bold;font-size:6.66667px;font-family:monospace;-inkscape-font-specification:'monospace Bold';text-align:end;white-space:pre;shape-inside:url(#rect13873-6);display:inline;fill:#ff0000;stroke:none"><path
         d="M 38.006292,-1.7533262 V 1.6203357 H 36.6559 v -3.1648384 q 0,-0.5615035 -0.162418,-0.8028108 -0.157778,-0.2413073 -0.519738,-0.2413073 -0.371243,0 -0.580067,0.3294773 -0.208823,0.3248368 -0.208823,0.9049025 v 2.9745767 h -1.350393 v -7.2206569 h 1.350393 v 2.8028768 q 0.143855,-0.4315688 0.491895,-0.6682356 0.34804,-0.2366669 0.839935,-0.2366669 0.737843,0 1.113726,0.4918957 0.375882,0.4872551 0.375882,1.457125 z"
         style="fill:#000000;stroke:none;stroke-width:1.5"
         id="path14175" /></g><g
       id="g67969"
       transform="translate(5.4598179,0.18587895)"><g
         id="g67893"><path
           style="fill:none;fill-opacity:1;stroke:#000000;stroke-width:1;stroke-linecap:round;stroke-dasharray:none;stroke-opacity:1"
           d="M -2.6694915,21.055327 V 2.6825358"
           id="path12528-5" /><path
           style="fill:#000000;fill-opacity:1;stroke:#000000;stroke-width:1;stroke-linecap:round;stroke-dasharray:none;stroke-opacity:1"
           d="m -2.623598,1.114068 1.4867607,2.8138166 -3.1230175,3.438e-4 z"
           id="path67841"
           sodipodi:nodetypes="cccc" /></g><g
         id="g67893-1"
         transform="rotate(90,-2.6237614,21.066815)"><path
           style="fill:none;fill-opacity:1;stroke:#000000;stroke-width:1;stroke-linecap:round;stroke-dasharray:none;stroke-opacity:1"
           d="M -2.6694915,21.055327 V 2.6825358"
           id="path12528-5-7" /><path
           style="fill:#000000;fill-opacity:1;stroke:#000000;stroke-width:1;stroke-linecap:round;stroke-dasharray:none;stroke-opacity:1"
           d="m -2.623598,1.114068 1.4867607,2.8138166 -3.1230175,3.438e-4 z"
           id="path67841-9"
           sodipodi:nodetypes="cccc" /></g></g></g></svg>

<?xml version="1.0" encoding="UTF-8"?>
<svg width="24" height="24" fill="none" stroke="currentColor" stroke-linecap="round" stroke-linejoin="round" stroke-width="1.5" version="1.1" viewBox="0 0 24 24" xml:space="preserve"
    xmlns="http://www.w3.org/2000/svg">
    <path d="m19.469 2.3008a1.2764 1.2764 0 0 0-1.2754 1.2773 1.2764 1.2764 0 0 0 1.2754 1.2754 1.2764 1.2764 0 0 0 1.2773-1.2754 1.2764 1.2764 0 0 0-1.2773-1.2773zm-1.2754 4.0449a1.2764 1.2764 0 0 0-1.2773 1.2773 1.2764 1.2764 0 0 0 1.2773 1.2754 1.2764 1.2764 0 0 0 1.2754-1.2754 1.2764 1.2764 0 0 0-1.2754-1.2773zm-4.0625 5.7168a1.2764 1.2764 0 0 0-1.2773 1.2773 1.2764 1.2764 0 0 0 1.2773 1.2754 1.2764 1.2764 0 0 0 1.2754-1.2754 1.2764 1.2764 0 0 0-1.2754-1.2773zm-3.4883 3.4883a1.2764 1.2764 0 0 0-0.72656 0.23047 1.2764 1.2764 0 0 0-0.67578-0.19531 1.2764 1.2764 0 0 0-1.2754 1.2773 1.2764 1.2764 0 0 0 1.2754 1.2754 1.2764 1.2764 0 0 0 0.72656-0.23047 1.2764 1.2764 0 0 0 0.67578 0.19531 1.2764 1.2764 0 0 0 1.2754-1.2773 1.2764 1.2764 0 0 0-1.2754-1.2754zm-3.7402 1.293a1.2764 1.2764 0 0 0-1.25 1.043 1.2764 1.2764 0 0 0-0.29492-0.035157 1.2764 1.2764 0 0 0-1.2773 1.2754 1.2764 1.2764 0 0 0 1.2773 1.2773 1.2764 1.2764 0 0 0 1.252-1.043 1.2764 1.2764 0 0 0 0.29297 0.03711 1.2764 1.2764 0 0 0 1.2773-1.2773 1.2764 1.2764 0 0 0-1.2773-1.2773z" fill="#f00" stroke="none"/>
    <g transform="translate(0 .047113)">
        <g transform="matrix(1.4256 0 0 1.4256 -33.552 16.107)" fill="#f00" stroke="none" style="shape-inside:url(#rect13873);white-space:pre" aria-label="Q">
            <path d="m29.223-5.7474q-0.04557 0.00977-0.07813 0.013021-0.0293 0.00651-0.05859 0.00651-0.83659 0-1.2695-0.63802-0.42969-0.63802-0.42969-1.8815 0-1.2467 0.42969-1.8848 0.43294-0.63802 1.276-0.63802 0.84636 0 1.276 0.63802 0.43294 0.63802 0.43294 1.8848 0 0.85612-0.20508 1.4355-0.20508 0.57617-0.5957 0.82357l0.60547 0.59245-0.65755 0.48828zm-0.13021-4.1602q-0.36784 0-0.53711 0.39388-0.16927 0.39063-0.16927 1.2663 0 0.8724 0.16927 1.2663 0.16927 0.39063 0.53711 0.39063 0.37109 0 0.54036-0.39063 0.16927-0.39388 0.16927-1.2663 0-0.87565-0.16927-1.2663-0.16927-0.39388-0.54036-0.39388z" fill="#000"/>
        </g>
        <g transform="translate(-15.961 16.621)" fill="#f00" stroke="none" style="shape-inside:url(#rect13873-6);white-space:pre" aria-label="h">
            <path d="m38.006-1.7533v3.3737h-1.3504v-3.1648q0-0.5615-0.16242-0.80281-0.15778-0.24131-0.51974-0.24131-0.37124 0-0.58007 0.32948-0.20882 0.32484-0.20882 0.9049v2.9746h-1.3504v-7.2207h1.3504v2.8029q0.14386-0.43157 0.4919-0.66824 0.34804-0.23667 0.83994-0.23667 0.73784 0 1.1137 0.4919 0.37588 0.48726 0.37588 1.4571z" fill="#000"/>
        </g>
        <g transform="translate(5.4598 .18588)" stroke="#000" stroke-linecap="round" stroke-width="1">
            <path d="m-2.6695 21.055v-18.373" fill="none"/>
            <path d="m-2.6236 1.1141 1.4868 2.8138-3.123 3.438e-4z" fill="#000"/>
            <g transform="rotate(90 -2.6238 21.067)">
                <path d="m-2.6695 21.055v-18.373" fill="none"/>
                <path d="m-2.6236 1.1141 1.4868 2.8138-3.123 3.438e-4z" fill="#000"/>
            </g>
        </g>
    </g>
</svg>
